src/assets/outline/Received.svg

<svg width="24" height="24" viewBox="0 0 24 24"  xmlns="http://www.w3.org/2000/svg">
<path d="M4.99994 18.2499C4.80994 18.2499 4.61994 18.1799 4.46994 18.0299C4.17994 17.7399 4.17994 17.2599 4.46994 16.9699L18.4699 2.96994C18.7599 2.67994 19.2399 2.67994 19.5299 2.96994C19.8199 3.25994 19.8199 3.73994 19.5299 4.02994L5.52994 18.0299C5.37994 18.1799 5.18994 18.2499 4.99994 18.2499Z" />
<path d="M15.27 18.25H5C4.59 18.25 4.25 17.91 4.25 17.5V7.22998C4.25 6.81998 4.59 6.47998 5 6.47998C5.41 6.47998 5.75 6.81998 5.75 7.22998V16.75H15.27C15.68 16.75 16.02 17.09 16.02 17.5C16.02 17.91 15.68 18.25 15.27 18.25Z" />
<path d="M20.5 22.75H3.5C3.09 22.75 2.75 22.41 2.75 22C2.75 21.59 3.09 21.25 3.5 21.25H20.5C20.91 21.25 21.25 21.59 21.25 22C21.25 22.41 20.91 22.75 20.5 22.75Z" />
</svg>

<?xml version="1.0" encoding="UTF-8"?>
<svg width="24" height="24" viewBox="0 0 24 24" xmlns="http://www.w3.org/2000/svg">
 <path d="m4.9999 18.25c-0.19 0-0.38-0.07-0.53-0.22-0.29-0.29-0.29-0.77 0-1.06l14-14c0.29-0.29 0.77-0.29 1.06 0s0.29 0.77 0 1.06l-14 14c-0.15 0.15-0.34 0.22-0.53 0.22z"/>
 <path d="m15.27 18.25h-10.27c-0.41 0-0.75-0.34-0.75-0.75v-10.27c0-0.41 0.34-0.75 0.75-0.75s0.75 0.34 0.75 0.75v9.52h9.52c0.41 0 0.75 0.34 0.75 0.75s-0.34 0.75-0.75 0.75z"/>
 <path d="m20.5 22.75h-17c-0.41 0-0.75-0.34-0.75-0.75s0.34-0.75 0.75-0.75h17c0.41 0 0.75 0.34 0.75 0.75s-0.34 0.75-0.75 0.75z"/>
</svg>
